packages/icons/svgs/duotone/Source=sun.svg

<svg width="24" height="24" viewBox="0 0 24 24" fill="none" xmlns="http://www.w3.org/2000/svg">
<g clip-path="url(#clip0_669_796)">
<g opacity="0.5">
<path fill-rule="evenodd" clip-rule="evenodd" d="M0 12C0 11.4477 0.447715 11 1 11H2C2.55228 11 3 11.4477 3 12C3 12.5523 2.55228 13 2 13H1C0.447715 13 0 12.5523 0 12Z" fill="black" style="fill:black;fill-opacity:1;"/>
<path fill-rule="evenodd" clip-rule="evenodd" d="M3.49309 3.49291C3.88361 3.10238 4.51678 3.10238 4.9073 3.49291L5.6073 4.19291C5.99783 4.58343 5.99783 5.2166 5.6073 5.60712C5.21678 5.99764 4.58361 5.99764 4.19309 5.60712L3.49309 4.90712C3.10256 4.51659 3.10256 3.88343 3.49309 3.49291Z" fill="black" style="fill:black;fill-opacity:1;"/>
<path fill-rule="evenodd" clip-rule="evenodd" d="M12 0C12.5523 0 13 0.447715 13 1V2C13 2.55228 12.5523 3 12 3C11.4477 3 11 2.55228 11 2V1C11 0.447715 11.4477 0 12 0Z" fill="black" style="fill:black;fill-opacity:1;"/>
<path fill-rule="evenodd" clip-rule="evenodd" d="M20.5072 3.4929C20.8977 3.88343 20.8977 4.51659 20.5072 4.90712L19.8072 5.60712C19.4167 5.99764 18.7835 5.99764 18.393 5.60712C18.0025 5.2166 18.0025 4.58343 18.393 4.19291L19.093 3.49291C19.4835 3.10238 20.1167 3.10238 20.5072 3.4929Z" fill="black" style="fill:black;fill-opacity:1;"/>
<path fill-rule="evenodd" clip-rule="evenodd" d="M21 12C21 11.4477 21.4477 11 22 11H23C23.5523 11 24 11.4477 24 12C24 12.5523 23.5523 13 23 13H22C21.4477 13 21 12.5523 21 12Z" fill="black" style="fill:black;fill-opacity:1;"/>
<path fill-rule="evenodd" clip-rule="evenodd" d="M18.393 18.3929C18.7835 18.0024 19.4167 18.0024 19.8072 18.3929L20.5072 19.0929C20.8977 19.4834 20.8977 20.1166 20.5072 20.5071C20.1167 20.8976 19.4835 20.8976 19.093 20.5071L18.393 19.8071C18.0025 19.4166 18.0025 18.7834 18.393 18.3929Z" fill="black" style="fill:black;fill-opacity:1;"/>
<path fill-rule="evenodd" clip-rule="evenodd" d="M12 21C12.5523 21 13 21.4477 13 22V23C13 23.5523 12.5523 24 12 24C11.4477 24 11 23.5523 11 23V22C11 21.4477 11.4477 21 12 21Z" fill="black" style="fill:black;fill-opacity:1;"/>
<path fill-rule="evenodd" clip-rule="evenodd" d="M5.6073 18.3929C5.99783 18.7834 5.99783 19.4166 5.6073 19.8071L4.9073 20.5071C4.51678 20.8976 3.88361 20.8976 3.49309 20.5071C3.10256 20.1166 3.10256 19.4834 3.49309 19.0929L4.19309 18.3929C4.58361 18.0024 5.21678 18.0024 5.6073 18.3929Z" fill="black" style="fill:black;fill-opacity:1;"/>
</g>
<path fill-rule="evenodd" clip-rule="evenodd" d="M12 7C9.23858 7 7 9.23858 7 12C7 14.7614 9.23858 17 12 17C14.7614 17 17 14.7614 17 12C17 9.23858 14.7614 7 12 7ZM5 12C5 8.13401 8.13401 5 12 5C15.866 5 19 8.13401 19 12C19 15.866 15.866 19 12 19C8.13401 19 5 15.866 5 12Z" fill="black" style="fill:black;fill-opacity:1;"/>
</g>
<defs>
<clipPath id="clip0_669_796">
<rect width="24" height="24" fill="white" style="fill:white;fill-opacity:1;"/>
</clipPath>
</defs>
</svg>

<svg xmlns="http://www.w3.org/2000/svg" width="24" height="24" viewBox="0 0 24 24"><g fill-rule="evenodd" clip-path="url(#a)" clip-rule="evenodd"><path d="M0 12a1 1 0 0 1 1-1h1a1 1 0 1 1 0 2H1a1 1 0 0 1-1-1m3.493-8.507a1 1 0 0 1 1.414 0l.7.7a1 1 0 1 1-1.414 1.414l-.7-.7a1 1 0 0 1 0-1.414M12 0a1 1 0 0 1 1 1v1a1 1 0 1 1-2 0V1a1 1 0 0 1 1-1m8.507 3.493a1 1 0 0 1 0 1.414l-.7.7a1 1 0 1 1-1.414-1.414l.7-.7a1 1 0 0 1 1.414 0M21 12a1 1 0 0 1 1-1h1a1 1 0 1 1 0 2h-1a1 1 0 0 1-1-1m-2.607 6.393a1 1 0 0 1 1.414 0l.7.7a1 1 0 0 1-1.414 1.414l-.7-.7a1 1 0 0 1 0-1.414M12 21a1 1 0 0 1 1 1v1a1 1 0 1 1-2 0v-1a1 1 0 0 1 1-1m-6.393-2.607a1 1 0 0 1 0 1.414l-.7.7a1 1 0 0 1-1.414-1.414l.7-.7a1 1 0 0 1 1.414 0" opacity=".55"/><path d="M12 7a5 5 0 1 0 0 10 5 5 0 0 0 0-10m-7 5a7 7 0 1 1 14 0 7 7 0 0 1-14 0"/></g><defs><clipPath id="a"><path fill="#fff" d="M0 0h24v24H0z"/></clipPath></defs></svg>
